X:1
T:Title
T:Mazurka in C Minor 
T:F. Chopin
T:Four Mazurkas. Op. 30: No. 1
C:Composer
%%score { ( 1 3 ) | ( 2 4 ) }
L:1/8
Q:1/4=108
M:3/4
K:Eb
V:1 treble nm="Piano" snm="Pno."
V:3 treble 
V:2 bass 
V:4 bass 
V:1
"^Allegretto non tanto"!p! (!>!G2- | G{/B}AG=Bcd |{/f} ed c4) | (de{/g} f2 ed | de c4) | %5
!f! (D{/F}ED^FG=A |{/c} B=A (G4) | =AB{/d} c2 BA | G6-) |!p! (G(PAG)=B=cd |{/f} ed c4) | %11
 (de{/g} f2 ed | de c4) |!f! (D(PED)^FG=A |{/c} B=A (G4) | =AB{/d} c2 BA |!<(! G4!<)!!mf! G>)G | %17
"^con anima"!<(! (G !>!!^!A4!<)! G |!<(! =E>F d3 c)!<)! |!f! (F !>!G4 F |!<(! E>B{/B} g3 f!<)! | %21
 (e>)!>(!c B2{/d} [Ac]2 | B>A G4-)!>)! |!p! (GF E2{/G} F2 | D=B, G,2 !>!G>)G | %25
!<(! (G !>!!^!A4!<)! G |!<(! =E>F d3 c)!<)! |!mf!"_cresc." (F !>!!^!G4 F |!<(! E>B e4!<)! | %29
!f!!>(! (d2) ^c>de>d | G2!>)!!mf!"_dim." ^c>de>d | g2 ^c>de>d | G2 ^c>de>d | g2 ^c>de>d | %34
 G2 ^c>de>d |!pp![Q:1/4=105]!<(!"^poco riten." g2[Q:1/4=100] ^c>d!<)!!mp![Q:1/4=95]!>(!e>d | %36
[Q:1/4=90] a4 g2)!>)! |!p![Q:1/4=108] (G{/B}AG=Bcd |{/f} ed c4) | (de{/g} f2 ed | de c4) | %41
!f! (D{/F}ED^FG=A |{/c} B=A (G4) | =AB{/d} c2 BA | G6-) |!p! (G(PAG)=B=cd |{/f} ed c4) | %47
 (de!<(!{/g} f2 ed | de c4)!<)! |!f!!>(! (de{/g} f2 ed!>)! |!mp!"_dim." ad{/g} f2 ed | %51
[Q:1/4=105]"^rit." ad[Q:1/4=100]{/g} f2[Q:1/4=95] ed |[Q:1/4=90] de[Q:1/4=85] c4-) | %53
!pp! !fermata!c6 |] %54
V:2
 z2 | z2 x2 F2 | z2 .[C,G,]2 .[C,G,]2 | z2 .[C,G,=B,]2 .[C,G,D]2 | z2 .[C,G,C]2 .[C,G,C]2 | %5
 z2 x2 C2 | z2 G,4- | G,2 x4 | z2 (G,,2 G,2) | z2 [DF]2 [DF]2 | z2 .[C,G,]2 .[C,G,]2 | %11
 z2 .[C,G,=B,]2 .[C,G,D]2 | z2 .[C,G,C]2 .[C,G,C]2 | z2 x2 C2 | z2 G,4- | G,2 x4 | %16
 G,,2 G,2 (!>!!^![=E,_B,]2- | [=E,B,]2 [F,A,]2) [F,A,]2 |!ped! A,,,2 [C,A,]2 [F,A,]2!ped-up! | %19
!ped! B,,,2 [B,,A,]2 [B,,A,]2!ped-up! |!ped! E,,2 [EG]2!ped-up! [EG]2 |"_legato" [EA]2 G2 [A,E]2 | %22
 [B,D]2 [E,B,]4 | [G,-=B,]2 G,2 A,2 | D,4!ped! (_B,2- | B,2!ped-up! A,2) [C,A,]2 | %26
!ped! A,,,2 [C,A,]2 [F,A,]2!ped-up! |!ped! B,,,2 [B,,A,]2 [B,,A,]2!ped-up! | %28
!ped! E,,2 ([B,EG]2!ped-up! [=A,CG]2 | [=A,C^F]2) [A,CF]2 [_A,CF]2 | %30
 [G,=B,G]2 [G,=A,^F]2 [G,A,F]2 | [G,=B,=F]2 [G,=A,^F]2 [G,A,F]2 | [G,=B,G]2 [G,=A,^F]2 [G,A,F]2 | %33
 [G,=B,=F]6- | [G,B,F]6- | [G,B,F]4 z2 | z6 | z2 x2 F2 | z2 .[C,G,]2 .[C,G,]2 | %39
 z2 .[C,G,=B,]2 .[C,G,D]2 | z2 .[C,G,C]2 .[C,G,C]2 | z2 x2 C2 | z2 G,4- | G,2 x4 | z2 (G,,2 G,2) | %45
 z2 [DF]2 [DF]2 | z2 .[C,G,]2 .[C,G,]2 | z2 .[C,G,=B,]2 .[C,G,D]2 | z2 .[C,G,C]2 .[C,G,C]2 | %49
 z2 (.[C,G,=B,]2 .[C,G,B,]2) | z2 (.[C,G,=B,]2 .[C,G,B,]2) |!ped! C,,2 ([A,=B,F]2 [A,B,F]2- | %52
 [A,B,F]2!ped-up! [A,CF]2 [A,CF]2) | (D,E, !fermata!C,4) |] %54
V:3
 x2 | x2 G2 z2 | z2 .E2 .E2 | z2 .F2 .F2 | z2 .E2 .E2 | x2 D2 x2 | z2 .B,2!>(! .D2 | %7
 E2 [EG]2 [C^F]2!>)! | z2 ([=B,D]2 [CE][^C=E]) | [DF]3 x3 | z2 .E2 .E2 | z2 .F2 .F2 | z2 .E2 .E2 | %13
 x2 D2 x2 | z2 (B,2!>(! D2 | E2) [EG]2 [C^F]2!>)! | z2 [=B,D]2 (_D2- | _D2 C4-) | C6- | C2 C2 D2 | %20
 E2 x4 | x6 | F2 E4 | D2 C4 | x4 (!arpeggio!_D2- | D2 C4-) | C6- | C2 (C2 D2 | E2) x4 | x6 | x6 | %31
 x6 | x6 | x6 | G6- | G4 z2 | x6 | z2 G2 x2 | z2 .E2 .E2 | z2 .F2 .F2 | z2 .E2 .E2 | x2 D2 x2 | %42
 z2 .B,2!>(! .D2 | E2 [EG]2 [C^F]2!>)! | z2 ([=B,D]2 [CE][^C=E]) | [DF]3 x3 | z2 .E2 .E2 | %47
 z2 .F2 .F2 | z2 .E2 .E2 | z2 .F2 .F2 | z2 .F2 .F2 | x6 | x6 | (DE !fermata!C4) |] %54
V:4
 x2 | x2 ([G,D]2 [G,D]2) | x6 | x6 | x6 | x2 ([D,=A,]2 [D,A,]2) | x2 (G,,2 B,,2 | %7
 C,2 [=A,,=A,]2 D,2) | x6 | x2 G,2 G,2 | x6 | x6 | x6 | x2 ([D,=A,]2 [D,A,]2) | x2 G,,2 B,,2 | %15
 C,2 [=A,,=A,]2 D,2 | x6 | A,,6 | x6 | x6 | x2 (B,2 =B,2 | C>D E2) z2 | x6 | x2 C,2 F,,2 | %24
 G,,4 (!arpeggio!=E,,2 | .F,,2) x4 | x6 | x6 | x6 | x6 | x6 | x6 | x6 | x6 | x6 | x6 | x6 | %37
 x2 ([G,D]2 [G,D]2) | x6 | x6 | x6 | x2 ([D,=A,]2 [D,A,]2) | x2 (G,,2 B,,2 | C,2 [=A,,=A,]2 D,2) | %44
 x6 | x2 G,2 G,2 | x6 | x6 | x6 | x6 | x6 | x6 | x6 | x6 |] %54

